X: 03053
T: LAURIE'S HORNPIPE
C: Bob McQuillen 30 Sept 77
B: Bob's Note Book 03 #53
%R: hornpipe, reel
%D:1977
Z: 2020 John Chambers <jc:trillian.mit.edu>
M: C
L: 1/8
K: A	% and F#m
cd \
| eaga fgaf | ecef edce | dcde dBcd | efec e2cd |
| eaga fgaf | ecef edce | dcBc defg | a2A2 A2  :|
K: F#m
|: AB \
| c2cf cAFA | c2cd cAFA | GABc B2AB | cAF2 F2AB |
| c2cf cAFA | c2cd cAFA | cfed cBAG | A2F2 F2  :|
%%begintext align
%% For Laurie Rose Indenbaum,
%% great "Applejack" fiddler, with
%% love and best wishes always.
%%endtext

%%sep 1 1 500

%%sep 1 1 500

